X:1
T:Emswiler, 76.76 D
T:Emswiler, 76.76 D
T:Ruth Marian Emswiler, 1973
T:Public Domain Courtesy of the Cyber Hymnal™
C:Ruth Marian Emswiler, 1973
Z:Public Domain
Z:Courtesy of the Cyber Hymnal™
%%score ( 1 2 ) ( 3 4 )
L:1/8
Q:1/4=90
M:4/4
K:Bb
V:1 treble 
V:2 treble 
V:3 bass 
V:4 bass 
V:1
 [DF][DF][EG][DF] [DF][DB][DB][DF] | [DG][DG][DG][DG] [DG]3 [DF] | %2
 [EA][EA][EG][EA] [EA] [EA]2 [DB] | [DB][DB][DA][EG] [DF]3 [DF] | %4
 [DG][DF][DG][EA] [DB] [DB]2 [DF] | [DB][DB][Ec][DB] [Fd]3 F | [DB][DB][Ec][Fd] [Ge] [EG]2 [Ge] | %7
 [Fd][Ec][DB][DA] [DB]4 |] %8
V:2
 x8 | x8 | x8 | x8 | x8 | x7 F | x8 | x8 |] %8
V:3
 [B,,B,][B,,B,][B,,B,][B,,B,] [B,,B,][B,,F,][B,,F,][B,,B,] | %1
 [G,B,][G,B,][G,B,][G,B,] [G,B,]3 [B,,F,] | [B,,F,][B,,F,][C,G,][B,,F,] [G,B,] [G,B,]2 [B,,B,] | %3
 [B,,B,][B,,B,][B,,B,][B,,B,] [B,,B,]3 [B,,B,] | [B,,B,][B,,B,][B,,B,][F,C] [F,B,] F,2 [B,,A,] | %5
 [B,,A,][B,,A,][B,,A,][B,,A,] [B,,A,]3 F, | [B,,F,][B,,F,][B,,G,][D,B,] [E,B,] [E,B,]2 [E,B,] | %7
 [F,A,][F,A,]F,F, [B,,F,]4 |] %8
V:4
 x8 | x8 | x8 | x8 | x5 F,2 x | x7 F, | x8 | x2 F,F, x4 |] %8

